app/images/icons/apple.svg

<svg width="48" height="48" viewBox="0 0 48 48" fill="none" xmlns="http://www.w3.org/2000/svg">
<path d="M39.3293 34.6135C38.7548 35.9412 38.0747 37.1632 37.2868 38.2868C36.2128 39.8184 35.3334 40.8787 34.6557 41.4674C33.6052 42.4338 32.4796 42.9287 31.2742 42.9569C30.4089 42.9569 29.3654 42.7106 28.1507 42.211C26.932 41.7137 25.812 41.4674 24.7879 41.4674C23.7139 41.4674 22.562 41.7137 21.33 42.211C20.096 42.7106 19.102 42.9709 18.342 42.9967C17.1861 43.046 16.034 42.537 14.884 41.4674C14.15 40.8271 13.232 39.7293 12.1321 38.1742C10.9521 36.5135 9.982 34.5877 9.22198 32.3922C8.40803 30.0208 8 27.7245 8 25.5013C8 22.9547 8.55014 20.7583 9.65206 18.9177C10.5181 17.4392 11.6702 16.273 13.1121 15.4168C14.5541 14.5607 16.1121 14.1244 17.7899 14.0965C18.708 14.0965 19.9119 14.3806 21.4081 14.9388C22.9 15.4989 23.8579 15.783 24.2779 15.783C24.5919 15.783 25.656 15.4509 27.4601 14.7887C29.1661 14.1746 30.6059 13.9204 31.7854 14.0205C34.9817 14.2785 37.383 15.5388 38.9799 17.8094C36.1214 19.5418 34.7073 21.9684 34.7355 25.0812C34.7612 27.5059 35.6406 29.5236 37.3689 31.1256C38.1521 31.8692 39.0268 32.4439 40 32.852C39.789 33.4642 39.5662 34.0506 39.3293 34.6135ZM31.9988 5.76022C31.9988 7.66065 31.3047 9.43508 29.9212 11.0775C28.2515 13.03 26.232 14.1582 24.042 13.9802C24.0141 13.7522 23.9979 13.5122 23.9979 13.2601C23.9979 11.4356 24.7919 9.48316 26.202 7.88674C26.9059 7.07845 27.8013 6.40636 28.887 5.87022C29.9704 5.34209 30.9952 5.05002 31.959 5C31.9871 5.25406 31.9988 5.50813 31.9988 5.76019V5.76022Z" fill="white"/>
</svg>

<svg width="48" height="48" fill="none" xmlns="http://www.w3.org/2000/svg"><path d="M39.33 34.614a20.66 20.66 0 01-2.043 3.673c-1.074 1.531-1.954 2.592-2.631 3.18-1.05.967-2.176 1.462-3.382 1.49-.865 0-1.909-.246-3.123-.746-1.219-.497-2.339-.744-3.363-.744-1.074 0-2.226.247-3.458.744-1.234.5-2.228.76-2.988.786-1.156.049-2.308-.46-3.458-1.53-.734-.64-1.652-1.738-2.752-3.293-1.18-1.66-2.15-3.586-2.91-5.782C8.408 30.021 8 27.724 8 25.502c0-2.547.55-4.744 1.652-6.584a9.693 9.693 0 013.46-3.501 9.307 9.307 0 014.678-1.32c.918 0 2.122.284 3.618.842 1.492.56 2.45.844 2.87.844.314 0 1.378-.332 3.182-.994 1.706-.614 3.146-.869 4.325-.768 3.197.257 5.598 1.518 7.195 3.788-2.859 1.733-4.273 4.16-4.244 7.272.025 2.425.905 4.443 2.633 6.045A8.652 8.652 0 0040 32.852a28.368 28.368 0 01-.67 1.762zM31.998 5.76c0 1.9-.694 3.675-2.078 5.318-1.67 1.952-3.689 3.08-5.879 2.902a5.92 5.92 0 01-.044-.72c0-1.824.794-3.777 2.204-5.373.704-.809 1.6-1.48 2.685-2.017 1.083-.528 2.108-.82 3.072-.87.028.254.04.508.04.76z" fill="#fff"/></svg>
